X:1
T:Stella (Wathall), 12.12.12.12
T:Stella (Wathall), 12.12.12.12
T:Alfred George Wathall, 1905
T:Public Domain Courtesy of the Cyber Hymnal™
C:Alfred George Wathall, 1905
Z:Public Domain
Z:Courtesy of the Cyber Hymnal™
%%score ( 1 2 ) ( 3 4 )
L:1/8
Q:1/4=110
M:3/4
K:C
V:1 treble 
V:2 treble 
V:3 bass 
V:4 bass 
V:1
 [EG]>[CE] | [DF]2 [DA]3 [DA] | c4 [EG]>[CE] | [EG]2 [DA]3 [DA] | [Cc]4 C>[CD] | %5
 [CE]2 [CE]2 [DE]2 | [CA]4 [CE]>[CE] | [CE]2 [B,D]2 [A,C]2 | [B,D]4 D>[DE] | [DF]2 [DG]2 [DA]2 | %10
 [DB]4 E>E | [EA]2 [EB]2 [Ec]2 | [Fd]4 G>G | [Ge]2 [Gd]2 [Ee]2 | [Ec]3 [CG] [CG]2 | %15
 G2 [DG]2 [FG]2 | [EG]4 |] %17
V:2
 x2 | x6 | (C2 E2) x2 | x6 | x4 C3/2 x/ | x6 | x6 | x6 | x4 D3/2 x/ | x6 | x4 E>E | x6 | x4 G>G | %13
 x6 | x6 | (DC) x4 | x4 |] %17
V:3
 [C,G,]>[C,G,] | [C,G,]2 [C,F,]3 [C,F,] | (E,2 G,2) [C,G,]>[C,G,] | [C,G,]2 [C,F,]3 [C,F,] | %4
 [C,E,]4 [C,E,]>[C,F,] | [C,G,]2 [C,G,]2 [B,,^G,]2 | (A,2 E,2) [A,,G,]>[A,,G,] | %7
 [D,^F,]2 [D,F,]2 [D,F,]2 | [G,,G,]4 [G,B,]>[G,B,] | [D,A,]2 [E,A,]2 [F,A,]2 | %10
 [E,^G,]4 [G,B,]>[G,B,] | [A,C]2 [A,D]2 [A,C]2 | [G,B,]4 G,>G, | [CE]2 [B,D]2 [G,B,]2 | %14
 [A,C]3 [E,C] [E,G,]2 | (B,A,) [G,,B,]2 [G,,D]2 | [C,C]4 |] %17
V:4
 x2 | x6 | C,4 x2 | x6 | x6 | x6 | A,,4 x2 | x6 | x6 | x6 | x6 | x6 | x4 G,>G, | x6 | x6 | G,2 x4 | %16
 x4 |] %17

